X: 19
T:Tom Jones (#95)
M:6/8
L:1/8
S:Aird's Selections 1782-97
K:D
[A3c3a3] [A3c3g3]|fdf ecA|d2 f ecA|d2f ecA|
dcd ede|fef gfg|a2 d c2 B|A3 A3|
D2 F E2 G|F2 A G2 F|GAB ABc|B3 A3|
GFG AGA|BAB cBc|d2 G F2 E|D3 D3||

